!!!OTL: 1462. Der geliebte Jaeger.
!!!ARE: Europa, Mitteleuropa, Deutschland, Ober - Hessen; Lahn - Gegend
!!!SCT: E1462
!!!TXL: @@DE
!!!YEM: Copyright 1995, estate of Helmut Schaffrath.
**kern	**text
*ICvox	*
*M4/4	*
*met(c)	*
*k[b-e-]	*
*B-:	*
!LO:TX:a:t=Solo.	!
!LO:TX:a:t=Munter.	!
!LO:TX:a:t=Aus Oberheſſen und Lahngegend. 1880-1890.	!
{8f	Ein
=1	=1
8d	Jä
8f	gers-
8f	-mann
8f	von
8f	Feu-
8f	-er,
8r	.
8f	das
=2	=2
8f	iſt
8f	mein
8f	Schatʒ
8f	für-
4g	-wahr,
8r}	.
{8g	ich
=3	=3
8f	lieb
8f	ihn
8f	hoch
8ee-	und
8cc	theu-
8cc	-er,
8r	.
8b-	ich
=4	=4
8a	lieb
8f	ihn
8.dd	ſchon
16cc	fünf
4b-	Jahr.
8r}	.
{8f	Er
=5	=5
8d	iſt
8f	ein
8f	gu-
8f	-ter
8f	Schü-
8f	-tʒe,
8r	.
8f	wo-
=6	=6
8f	-rauf
8f	er
8f	ʒielt,
8f	iſt
4g	ſein,
8r}	.
{8g	und
=7	=7
8f	von
8f	der
8f	Fel-
8ee-	-ſen-
8cc	-ſpi-
8cc	-tʒe
8r	.
8b-	ſchießt
=8	=8
8a	er
8f	den
8.dd	Ad-
16cc	-ler
4b-	fein.
8r}	.
!LO:TX:a:t=Chor.	!
{8f	Geht
=9	=9
4f	er
4dd	ʒur
4.b-	Jagd,
8f	im
=10	=10
8.f	Ar-
16f	-me
8f	das
8f	Ge-
4.g}	-wehr,
{8g	bei
=11	=11
4g	Tag
4ee-	und
4.cc	Nacht
8b-	ſtets
=12	=12
8a	auf
8f	den
8a	An-
8a	-ſtand
4b-	her.
8r}	.
{8f	Geht
=13	=13
4f	er
4dd	ʒur
4.b-	Jagd,
8f	im
=14	=14
8.f	Ar-
16f	-me
8f	das
8f	Ge-
4.g}	-wehr,
{8g	bei
=15	=15
4g	Tag
4ee-	und
4.cc	Nacht
8b-	ſtets
=16	=16
8a	auf
8f	den
8a	An-
8a	-ſtand
4b-	her.
8r}	.
==	==
!!!AGN: Staende -, Jaeger - Lied
!!!ONB: ESAC (Essen Associative Code) Database: ERK3
!!!AMT: simple quadruple
!!!AIN: vox
!!!EED: Helmut Schaffrath
!!!EEV: 1.0
!!!GTL: Staendelieder (Berufslieder). 2. Jaegerlieder und Jaegerballaden.
!!!URL-scan: https://rosdok.uni-rostock.de/mcrviewer/recordIdentifier/rosdok_ppn745177999/iview2/phys_0325.iview2?x=-128.77276441889285&y=-105.48579635331407&scale=0.5870222003877487&rotation=0&layout=singlePageLayout
!!!ENC: Anna Maria Matuszewska
!!!EEV: 2024/12/31
*-	*-
